packages/core/src/svgs/cvp.svg

<svg width="24" height="24" viewBox="0 0 24 24" fill="none" xmlns="http://www.w3.org/2000/svg">
<g clip-path="url(#clip0_31_8928)">
<path d="M0 0H24V24H0V0Z" fill="#1B38DA"/>
<path d="M7.81286 6.08131H9.83143L11.2886 5.16846H9.44143L7.81286 6.08131ZM8.31857 8.39989L9.39857 6.48846H7.26857L6.24 8.47274L8.31857 8.39989ZM8.21572 8.79846V10.9199H6.03857V8.79846H8.21572ZM12.7029 9.60417L14.16 10.4827H16.0671L14.61 9.60417H12.7029ZM12.6857 18.857H14.5071L16.0414 17.957H14.1129L12.6857 18.857ZM9.81857 13.5985L11.2757 14.4813H9.36429L7.90715 13.5985H9.81857ZM15.7629 13.1656V15.287H17.9357V13.1656H15.7629ZM14.5714 10.8556L15.6514 12.7713L17.73 12.8442L16.7014 10.8556H14.5714ZM8.31429 11.3142L9.39429 13.2299H7.26429L6.23572 11.2413L8.31429 11.3142ZM14.5714 17.597L15.6514 15.6813L17.73 15.6085L16.7014 17.597H14.5714Z" fill="#7899F8"/>
<path d="M14.4129 5.14307H12.3043L13.44 7.07592H15.57L14.4129 5.14307ZM15.0814 5.48592L16.0157 7.18307L17.6443 8.02735L16.7443 6.45021L15.0814 5.48164V5.48592ZM12.39 9.2145L13.4486 7.38878L15.6129 7.49164L14.5586 9.2145H12.3857H12.39ZM14.9186 9.35592L16.0457 7.59878L17.8457 8.6145L16.7572 10.4059L14.9186 9.35592ZM4.71429 10.6845L5.71287 9.13307V10.9331L4.71429 12.6431V10.6888V10.6845ZM5.92715 11.4302L4.76144 13.3074L5.88429 15.1588L6.92144 13.3074L5.92715 11.4302ZM6.07715 15.4588L7.23429 13.5859L9.15858 14.6745L7.97572 16.4616L6.07715 15.4631V15.4588ZM7.94572 16.7959L6.37715 16.0416L7.24287 17.6016L8.79429 18.4802L7.94572 16.7959ZM9.45858 18.8231L8.39572 16.9374H10.5943L11.6057 18.8231H9.46287H9.45858ZM11.13 8.68307L10.2429 10.2345L11.9572 9.24878L12.7029 7.78735L11.1257 8.68307H11.13ZM10.1186 6.33449L11.8929 5.22878L13.0072 7.1145L11.1429 8.23735L10.1143 6.33449H10.1186ZM9.84858 6.6645L8.61001 8.53735L9.74144 10.3331L10.8257 8.53307L9.84858 6.6645ZM8.61001 9.21021V11.0831L9.56144 12.6088V10.7359L8.61001 9.21021ZM9.51858 14.8074L8.36572 16.5088H10.6157L11.6443 14.8074H9.51858ZM11.25 16.2345L12.15 14.7345L13.68 13.8302L12.7072 15.4374L11.25 16.2345ZM12.7586 15.7974L10.9714 16.8431L12.1114 18.7374L13.8557 17.6488L12.7629 15.7974H12.7586ZM14.4557 11.4131L15.3986 12.9731V14.8716L14.4557 13.3288V11.4131ZM14.2243 13.7488L15.3386 15.5102L14.1172 17.3788L13.0329 15.5702L14.2243 13.7488ZM18.15 8.87164L17.07 10.7145L18.0643 12.6559L19.2857 10.7145L18.15 8.87164ZM18.2229 13.1145L19.2514 11.4559V13.2731L18.2229 14.7945V13.1145Z" fill="white"/>
</g>
<defs>
<clipPath id="clip0_31_8928">
<rect width="24" height="24" fill="white"/>
</clipPath>
</defs>
</svg>

<svg xmlns="http://www.w3.org/2000/svg" width="24" height="24" fill="none" viewBox="0 0 24 24"><g clip-path="url(#a)"><path fill="#1B38DA" d="M0 0h24v24H0z"/><path fill="#7899F8" d="M7.813 6.081H9.83l1.458-.913H9.44zM8.319 8.4l1.08-1.912h-2.13L6.24 8.473zm-.103.398v2.122H6.039V8.798zm4.487.806 1.457.879h1.907l-1.457-.879zm-.017 9.253h1.821l1.534-.9h-1.928zm-2.867-5.258 1.457.882H9.364l-1.457-.883zm5.944-.433v2.121h2.173v-2.121zm-1.192-2.31 1.08 1.915 2.079.073-1.029-1.988zm-6.257.458 1.08 1.916h-2.13L6.236 11.24zm6.257 6.283 1.08-1.916 2.079-.072-1.029 1.988z"/><path fill="#fff" d="M14.413 5.143h-2.109l1.136 1.933h2.13zm.668.343.935 1.697 1.628.844-.9-1.577-1.663-.968zM12.39 9.214l1.059-1.825 2.164.103-1.054 1.722h-2.173zm2.529.142 1.127-1.757 1.8 1.015-1.089 1.792zM4.714 10.685l.999-1.552v1.8l-.999 1.71v-1.959m1.213.745-1.166 1.877 1.123 1.852 1.037-1.852zm.15 4.029 1.157-1.873 1.925 1.088-1.183 1.788-1.899-.999zm1.869 1.337-1.569-.754.866 1.56 1.551.878zm1.513 2.027-1.063-1.886h2.198l1.012 1.886H9.459m1.671-10.14-.887 1.552 1.714-.986.746-1.462-1.577.896zm-1.011-2.349 1.774-1.105 1.114 1.885-1.864 1.123-1.029-1.903zm-.27.33L8.61 8.538l1.131 1.796 1.085-1.8zM8.61 9.21v1.873l.951 1.526v-1.873zm.909 5.597L8.366 16.51h2.25l1.028-1.702zm1.731 1.428.9-1.5 1.53-.905-.973 1.607zm1.509-.438-1.788 1.046 1.14 1.894 1.745-1.088-1.093-1.852zm1.697-4.384.943 1.56v1.899l-.943-1.543zm-.232 2.336 1.115 1.761-1.222 1.869-1.084-1.809zm3.926-4.877-1.08 1.842.994 1.942 1.222-1.942zm.073 4.243 1.028-1.66v1.818l-1.028 1.521z"/></g><defs><clipPath id="a"><path fill="#fff" d="M0 0h24v24H0z"/></clipPath></defs></svg>
